symbolic/48x48/apps/edu.mit.Scratch.svg

<svg xmlns="http://www.w3.org/2000/svg" width="48" height="48" version="1">
 <path style="opacity:0.2" d="M 30.552734 6 C 30.161901 5.9943757 29.786784 6.1521865 29.517578 6.4335938 L 24.603516 12 L 22.257812 12 C 20.516147 12 18.112817 11.983287 15.865234 12.660156 L 9.2617188 7.1992188 C 8.3373925 6.5222156 7.000184 7.1758843 7 8.3164062 L 7 19.060547 C 4.5836263 22.574826 2.8433581 27.136774 3.0136719 30.96875 C 3.0136399 30.97415 3.0136399 30.978945 3.0136719 30.984375 C 3.2298139 34.822892 5.9439499 38.106006 9.8417969 40.376953 C 13.739644 42.647903 18.913505 44.000001 24.587891 44 C 25.221089 44 25.845556 43.987067 26.460938 43.960938 C 26.547462 43.957263 26.621857 43.9424 26.707031 43.9375 C 26.550088 43.945965 26.390776 43.955589 26.240234 43.960938 C 26.228614 43.961438 26.216708 43.962465 26.205078 43.962891 C 26.203078 43.962738 26.201219 43.963044 26.199219 43.962891 C 17.87072 43.309459 11 38.152013 11 33.78125 C 10.999999 30.021 14.525647 28.294961 21 27 C 22.574434 26.685092 28.037563 31.264545 29.777344 30.896484 C 31.298476 30.574681 31.060234 26.405791 32.484375 26.275391 C 34.433201 26.09695 33.021117 24.633172 34.84375 24.638672 C 35.480102 24.457274 36.20082 24.383214 36.982422 24.402344 C 38.052762 24.428547 39.242248 24.640927 40.482422 24.980469 C 40.473969 24.975353 40.467515 24.969945 40.458984 24.964844 C 39.823937 21.074867 37.456524 17.825719 34.115234 15.517578 L 31.884766 7.0390625 C 31.725947 6.4348541 31.181509 6.0099009 30.552734 6 z"/>
 <path style="fill:#ff7f00" d="M 30.552963,5.000146 C 30.16213,4.9945217 29.786721,5.1513782 29.517515,5.4327854 L 24.602789,11 h -2.34434 c -1.741665,0 -4.145574,-0.0175 -6.393157,0.659369 L 9.2616576,6.1985028 C 8.3373313,5.5214996 7.000184,6.1766883 7,7.3172103 V 18.060786 c -2.4163737,3.514279 -4.1569601,8.075561 -3.9866463,11.907537 -3.2e-5,0.0054 -3.2e-5,0.01086 0,0.01629 0.216142,3.838517 2.9309989,7.122215 6.8288459,9.393162 3.8978474,2.27095 9.0716184,3.622226 14.7460044,3.622225 0.633198,0 1.25792,-0.01313 1.873301,-0.03926 4.8508,-0.206015 7.556491,-2.358235 10.823071,-4.121762 3.680987,-1.987252 4.728227,-4.044508 4.728226,-7.853842 0,-3.107607 1.1208,-5.421775 -1.55382,-7.021264 -0.635047,-3.889977 -3.002646,-7.137517 -6.343936,-9.445658 L 31.885554,6.0392046 C 31.726735,5.4349962 31.181738,5.0100469 30.552963,5.000146 Z"/>
 <path style="opacity:0.2;fill:#f4f4f7" d="M 30.552734 5 C 30.161901 4.9943757 29.786784 5.1521865 29.517578 5.4335938 L 24.603516 11 L 22.257812 11 C 20.516147 11 18.112817 10.983287 15.865234 11.660156 L 9.2617188 6.1992188 C 8.3373925 5.5222156 7.000184 6.1758842 7 7.3164062 L 7 8.3164062 C 7.000184 7.1758843 8.3373925 6.5222156 9.2617188 7.1992188 L 15.865234 12.660156 C 18.112817 11.983287 20.516147 12 22.257812 12 L 24.603516 12 L 29.517578 6.4335938 C 29.786784 6.1521865 30.161901 5.9943757 30.552734 6 C 31.181509 6.0099009 31.725947 6.4348541 31.884766 7.0390625 L 34.115234 15.517578 C 37.456524 17.825719 39.823937 21.074867 40.458984 24.964844 C 41.761303 25.743663 42.156404 26.693517 42.226562 27.820312 C 42.319848 26.24306 42.130622 24.964524 40.458984 23.964844 C 39.823937 20.074867 37.456524 16.825719 34.115234 14.517578 L 31.884766 6.0390625 C 31.725947 5.4348541 31.181509 5.0099009 30.552734 5 z M 7 18.060547 C 4.5836263 21.574826 2.8433581 26.136774 3.0136719 29.96875 C 3.0136399 29.97415 3.0136399 29.978945 3.0136719 29.984375 C 3.016337 30.031705 3.0239213 30.077839 3.0273438 30.125 C 3.1180802 26.479476 4.7571432 22.32247 7 19.060547 L 7 18.060547 z"/>
 <path style="fill:#5f4a44" d="m 29.506105,27.000428 c -0.466293,-0.0041 -0.979152,0.02068 -1.542308,0.07851 -1.811508,0.186028 -2.364426,0.0426 -2.463797,1.03709 1.661539,0.948742 3.456134,2.054685 4.441929,1.861866 0.89487,-0.175033 1.184827,-1.573566 1.558071,-2.728851 -0.542635,-0.150954 -1.200262,-0.241694 -1.993895,-0.248615 z"/>
 <path style="opacity:0.2" d="m 36.982422,24.402409 c -0.781602,-0.01913 -1.50232,0.05493 -2.138672,0.236328 -1.822633,-0.0055 -0.410549,1.458278 -2.359375,1.636719 -1.424141,0.1304 -1.185899,4.29929 -2.707031,4.621093 C 28.037563,31.26461 22.574434,26.685157 21,27.000065 c -6.474353,1.294961 -10.000001,3.021 -10,6.78125 0,4.370763 6.87072,9.528209 15.199219,10.181641 0.002,1.53e-4 0.0039,-1.53e-4 0.0059,0 0.01163,-4.26e-4 0.02354,-0.0015 0.03516,-0.002 0.301712,-0.01072 0.624374,-0.03172 0.935547,-0.04688 4.55273,-0.272227 8.57024,-1.261967 11.673828,-2.9375 C 42.530595,38.989376 45.000001,35.86604 45,32.056706 c 0,-3.09812 -1.856053,-5.476784 -4.517578,-7.076172 -1.240174,-0.339542 -2.42966,-0.551922 -3.5,-0.578125 z"/>
 <path style="fill:#ffce9d" d="M 36.982422 23.402344 C 36.20082 23.383209 35.480102 23.457273 34.84375 23.638672 C 33.021117 23.633172 34.433201 25.09695 32.484375 25.275391 C 31.060234 25.405791 31.298476 29.574681 29.777344 29.896484 C 28.037563 30.264545 22.574434 25.685092 21 26 C 14.525647 27.294961 10.999999 29.021 11 32.78125 C 11 37.152013 17.87072 42.309459 26.199219 42.962891 C 26.201171 42.963044 26.203126 42.962738 26.205078 42.962891 C 26.216704 42.962465 26.228615 42.961372 26.240234 42.960938 C 26.541946 42.95022 26.864608 42.929222 27.175781 42.914062 C 31.728511 42.641835 35.746021 41.652095 38.849609 39.976562 C 42.530595 37.989311 45.000001 34.865975 45 31.056641 C 45 27.958521 43.143947 25.579857 40.482422 23.980469 C 39.242248 23.640927 38.052762 23.428547 36.982422 23.402344 z"/>
 <path style="opacity:0.2;fill:#f4f4f7" d="M 36.982422 23.402344 C 36.20082 23.383209 35.480102 23.457273 34.84375 23.638672 C 33.021117 23.633172 34.433201 25.09695 32.484375 25.275391 C 31.060234 25.405791 31.298476 29.574681 29.777344 29.896484 C 28.037563 30.264545 22.574434 25.685092 21 26 C 14.525647 27.294961 10.999999 29.021 11 32.78125 C 11 32.907531 11.025769 33.036596 11.037109 33.164062 C 11.411818 29.828966 14.892031 28.221679 21 27 C 22.574434 26.685092 28.037563 31.264545 29.777344 30.896484 C 31.298476 30.574681 31.060234 26.405791 32.484375 26.275391 C 34.433201 26.09695 33.021117 24.633172 34.84375 24.638672 C 35.480102 24.457274 36.20082 24.383214 36.982422 24.402344 C 38.052762 24.428547 39.242248 24.640927 40.482422 24.980469 C 43.038598 26.516549 44.833119 28.77852 44.972656 31.699219 C 44.988362 31.487339 45 31.27303 45 31.056641 C 45 27.958521 43.143947 25.579857 40.482422 23.980469 C 39.242248 23.640927 38.052762 23.428547 36.982422 23.402344 z"/>
 <path style="opacity:0.2" d="m 34.999999,36.026781 c -0.03071,2.71707 -5.99986,5.177205 -8.509509,4.959815 C 21.646116,40.566966 17.4198,37.287841 19.579452,32 Z"/>
 <path style="fill:#f4f4f7" d="m 34.999999,35.026781 c -0.03071,2.71707 -5.99986,5.177205 -8.509509,4.959815 C 21.646116,39.566966 17.4198,36.287841 19.579452,31 Z"/>
 <ellipse style="opacity:0.2" cx="5.77" cy="28.151" rx="4.74" ry="5.726" transform="matrix(0.92917971,-0.36962828,0.4134305,0.91053568,0,0)"/>
 <ellipse style="fill:#f4f4f7" cx="6.184" cy="27.221" rx="4.74" ry="5.726" transform="matrix(0.92917971,-0.36962828,0.4134305,0.91053568,0,0)"/>
 <circle style="fill:#3f3f3f" cx="18.5" cy="24.5" r="1.5"/>
 <ellipse style="opacity:0.2" cx="20.355" cy="34.072" rx="4.74" ry="5.726" transform="matrix(0.92917971,-0.36962828,0.4134305,0.91053568,0,0)"/>
 <ellipse style="fill:#f4f4f7" cx="20.769" cy="33.142" rx="4.74" ry="5.726" transform="matrix(0.92917971,-0.36962828,0.4134305,0.91053568,0,0)"/>
 <circle style="fill:#3f3f3f" cx="34.5" cy="24.5" r="1.5"/>
</svg>

<svg xmlns="http://www.w3.org/2000/svg" width="48" height="48" version="1"><path style="opacity:.2" d="M30.553 6a1.405 1.405 0 0 0-1.035.434L24.604 12h-2.346c-1.742 0-4.145-.017-6.393.66L9.262 7.2C8.337 6.521 7 7.175 7 8.315v10.745c-2.416 3.514-4.157 8.076-3.986 11.908v.015c.216 3.839 2.93 7.122 6.828 9.393C13.74 42.647 18.914 44 24.588 44c.633 0 1.258-.013 1.873-.04.086-.003.16-.018.246-.023-.157.009-.316.019-.467.024l-.035.002H26.2C17.871 43.309 11 38.152 11 33.78c0-3.76 3.526-5.486 10-6.781 1.574-.315 7.038 4.265 8.777 3.896 1.521-.321 1.283-4.49 2.707-4.62 1.95-.18.537-1.643 2.36-1.637.636-.182 1.357-.256 2.138-.237 1.07.027 2.26.239 3.5.578l-.023-.015c-.635-3.89-3.002-7.14-6.344-9.447l-2.23-8.479A1.398 1.398 0 0 0 30.553 6z"/><path style="fill:#ff7f00" d="M30.553 5a1.405 1.405 0 0 0-1.035.433L24.603 11h-2.345c-1.741 0-4.145-.018-6.393.66L9.262 6.198C8.337 5.52 7 6.177 7 7.317v10.744c-2.416 3.514-4.157 8.075-3.987 11.907v.017c.216 3.838 2.931 7.122 6.83 9.393C13.74 41.648 18.912 43 24.587 43c.633 0 1.258-.013 1.874-.04 4.85-.205 7.556-2.357 10.823-4.121 3.68-1.987 4.728-4.045 4.728-7.854 0-3.107 1.12-5.422-1.554-7.021-.635-3.89-3.003-7.138-6.344-9.446l-2.23-8.479A1.398 1.398 0 0 0 30.554 5z"/><path style="opacity:.2;fill:#f4f4f7" d="M30.553 5a1.405 1.405 0 0 0-1.035.434L24.604 11h-2.346c-1.742 0-4.145-.017-6.393.66L9.262 6.2C8.337 5.521 7 6.175 7 7.315v1C7 7.176 8.337 6.522 9.262 7.2l6.603 5.461c2.248-.677 4.651-.66 6.393-.66h2.346l4.914-5.566c.269-.282.644-.44 1.035-.434.629.01 1.173.435 1.332 1.04l2.23 8.478c3.342 2.308 5.709 5.557 6.344 9.447 1.302.779 1.697 1.729 1.768 2.855.093-1.577-.096-2.855-1.768-3.855-.635-3.89-3.002-7.14-6.344-9.447l-2.23-8.479A1.398 1.398 0 0 0 30.553 5zM7 18.06c-2.416 3.515-4.157 8.077-3.986 11.909v.015c.002.048.01.094.013.141.091-3.646 1.73-7.803 3.973-11.064v-1z"/><path style="fill:#5f4a44" d="M29.506 27c-.466-.004-.979.021-1.542.079-1.812.186-2.365.043-2.464 1.037 1.662.949 3.456 2.055 4.442 1.862.895-.175 1.185-1.574 1.558-2.729-.543-.15-1.2-.242-1.994-.249z"/><path style="opacity:.2" d="M36.982 24.402c-.781-.019-1.502.055-2.138.237-1.823-.006-.41 1.458-2.36 1.636-1.424.13-1.186 4.3-2.707 4.622-1.74.368-7.203-4.212-8.777-3.897-6.474 1.295-10 3.021-10 6.781 0 4.371 6.87 9.529 15.2 10.182h.005l.035-.002c.302-.01.625-.032.936-.047 4.553-.272 8.57-1.262 11.674-2.937 3.68-1.988 6.15-5.111 6.15-8.92 0-3.098-1.856-5.477-4.518-7.076-1.24-.34-2.43-.552-3.5-.579z"/><path style="fill:#ffce9d" d="M36.982 23.402c-.781-.019-1.502.055-2.138.237-1.823-.006-.41 1.458-2.36 1.636-1.424.13-1.186 4.3-2.707 4.621-1.74.369-7.203-4.21-8.777-3.896-6.474 1.295-10 3.021-10 6.781 0 4.371 6.87 9.528 15.2 10.182h.005l.035-.002c.302-.01.625-.032.936-.047 4.553-.272 8.57-1.262 11.674-2.937 3.68-1.988 6.15-5.111 6.15-8.92 0-3.098-1.856-5.477-4.518-7.077-1.24-.34-2.43-.551-3.5-.578z"/><path style="opacity:.2;fill:#f4f4f7" d="M36.982 23.402c-.781-.019-1.502.055-2.138.237-1.823-.006-.41 1.458-2.36 1.636-1.424.13-1.186 4.3-2.707 4.621-1.74.369-7.203-4.21-8.777-3.896-6.474 1.295-10 3.021-10 6.781 0 .127.026.256.037.383C11.412 29.83 14.892 28.222 21 27c1.574-.315 7.038 4.265 8.777 3.896 1.521-.321 1.283-4.49 2.707-4.62 1.95-.18.537-1.643 2.36-1.637.636-.182 1.357-.256 2.138-.237 1.07.027 2.26.239 3.5.578 2.557 1.537 4.351 3.799 4.49 6.72.016-.213.028-.427.028-.643 0-3.098-1.856-5.477-4.518-7.077-1.24-.34-2.43-.551-3.5-.578z"/><path style="opacity:.2" d="M35 36.027c-.03 2.717-6 5.177-8.51 4.96-4.844-.42-9.07-3.7-6.91-8.987z"/><path style="fill:#f4f4f7" d="M35 35.027c-.03 2.717-6 5.177-8.51 4.96-4.844-.42-9.07-3.7-6.91-8.987z"/><ellipse style="opacity:.2" cx="5.77" cy="28.151" rx="4.74" ry="5.726" transform="matrix(.92918 -.36963 .41343 .91054 0 0)"/><ellipse style="fill:#f4f4f7" cx="6.184" cy="27.221" rx="4.74" ry="5.726" transform="matrix(.92918 -.36963 .41343 .91054 0 0)"/><circle style="fill:#3f3f3f" cx="18.5" cy="24.5" r="1.5"/><ellipse style="opacity:.2" cx="20.355" cy="34.072" rx="4.74" ry="5.726" transform="matrix(.92918 -.36963 .41343 .91054 0 0)"/><ellipse style="fill:#f4f4f7" cx="20.769" cy="33.142" rx="4.74" ry="5.726" transform="matrix(.92918 -.36963 .41343 .91054 0 0)"/><circle style="fill:#3f3f3f" cx="34.5" cy="24.5" r="1.5"/></svg>
